X: 54
T:Humours of Ballyloughlin
R:Double Jig
S:Matt Molloy
Z:Modified by Alf Warnock to agree more with the Black Boo
M:6/8
L:1/8
K:DMix
~A3 AGE|GED D2B|cBc ded|cAG FED|
~A3 AGE|~G3 cGE|~D3 DFA|~D3 D3:|
|:cBc cAB|cAG ABc|~d3 dfd|dAF DFA|
cBc dcB|cAG FGE|~D3 DFA|~D3 D3:|
|:fdd gdd|fdd gdd|^cde ged|^cde ~g3|
fdd gdd|fdd gdd|^cde gag|ed^c d3:|
|:A2D AAG|~F3 GED|~E3 ~E3|~E3 EFG|
~A3 dAG|~F3 GEA|~D3 DFA|~D3 D3:|

